img/image/features-icon-4.svg

<svg width="40" height="40" viewBox="0 0 40 40" fill="none" xmlns="http://www.w3.org/2000/svg">
<g id="Group">
<g id="Group_2">
<path id="Vector" d="M38.7083 13.0653C40.2543 9.79752 40.0679 6.67407 39.8688 3.87181C39.8604 3.7275 39.7799 3.60182 39.6613 3.53665L39.3733 3.3877L37.014 8.75947C36.4761 10.0116 35.1206 10.5516 33.9812 9.96044L25.2642 5.36138C25.1541 5.30087 25.0228 5.36138 24.9847 5.49172C24.2942 7.71677 24.794 11.6502 23.2523 13.2049L3.11584 32.6951C1.58252 34.2591 1.55711 36.959 3.11584 38.6673L3.1709 38.7279C4.72963 40.4409 7.18632 40.4083 8.60528 38.7279C8.60528 38.7279 24.451 19.8335 26.1749 17.911C27.8946 15.9886 28.369 16.1096 30.4741 16.3051C33.3586 16.5797 37.0521 16.5518 38.7083 13.056V13.0653ZM4.40348 37.3174C3.81472 36.6704 3.81472 35.623 4.40348 34.976C4.99224 34.329 5.94527 34.329 6.53403 34.976C7.12279 35.623 7.12279 36.6704 6.53403 37.3174C5.94527 37.9645 4.99224 37.9645 4.40348 37.3174Z" fill="#D8DADC"/>
<path id="Vector_2" d="M38.7083 13.0653C40.2543 9.79752 40.0679 6.67407 39.8688 3.87181C39.8604 3.7275 39.7799 3.60182 39.6613 3.53665L39.3733 3.3877L37.5477 9.34599L25.6539 15.8396C25.6539 15.8396 16.6743 25.8291 11.0535 33.8914C6.81359 39.9707 5.19133 40.2779 3.11584 38.6673L3.17091 38.7279C4.72964 40.4409 7.18633 40.4083 8.60529 38.7279C8.60529 38.7279 24.451 19.8335 26.1749 17.911C27.8946 15.9886 28.369 16.1096 30.4741 16.3051C33.3586 16.5797 37.0521 16.5518 38.7083 13.056V13.0653Z" fill="#B1B1B2"/>
<path id="Vector_3" d="M38.2212 12.53C39.7673 9.26686 40.0383 6.64614 39.8647 3.87181C39.8562 3.7275 39.7757 3.59717 39.6529 3.53665L39.3649 3.3877L37.0056 8.75947C36.4677 10.0116 35.1122 10.5516 33.9729 9.96044L25.2558 5.36138C25.1457 5.30552 25.0144 5.36138 24.9763 5.49172C24.6332 6.59028 24.5823 8.10779 24.4341 9.54616C24.3833 10.0535 24.4595 13.0187 23.731 13.7356L3.74704 33.3887C2.21372 34.9527 2.6627 36.7868 3.74704 37.9784C4.83137 39.1701 6.55953 39.724 7.97848 38.0389C7.97848 38.0389 23.8242 19.1446 25.5481 17.2221C27.2678 15.2996 28.3733 16.1096 30.4784 16.3098C33.3629 16.5844 36.5736 16.0212 38.2255 12.53H38.2212ZM4.40357 37.3174C3.81481 36.6704 3.81481 35.623 4.40357 34.976C4.99233 34.329 5.94535 34.329 6.53411 34.976C7.12287 35.623 7.12287 36.6704 6.53411 37.3174C5.94535 37.9644 4.99233 37.9644 4.40357 37.3174Z" fill="#6D6D6E"/>
<path id="Vector_4" d="M7.34736 37.3446C7.34736 37.3446 23.3201 18.59 25.0398 16.6721C25.4591 16.1601 25.6836 15.4665 24.8195 14.7776C24.1927 14.2748 23.4938 14.9126 23.4938 14.9126L4.37391 34.0815C3.50136 34.9939 3.28957 36.0971 4.37391 37.2841C4.37814 37.2888 4.38661 37.2934 4.39085 37.3027C3.8148 36.6557 3.81903 35.6177 4.40356 34.9799C4.98808 34.3422 5.94535 34.3329 6.5341 34.9799C7.12286 35.627 7.12286 36.6743 6.5341 37.3214C5.98347 37.9265 5.11515 37.9637 4.52639 37.4377C5.56837 38.4479 6.6993 38.1406 7.35159 37.3493L7.34736 37.3446Z" fill="#9B9B9B"/>
<path id="Vector_5" d="M27.31 5.76128C29.3305 3.56416 31.55 1.81856 33.6636 0.184684C33.9389 -0.0294424 34.2947 -0.0573719 34.5954 0.100895L34.9512 0.352261L31.4356 8.73112L27.4371 6.58054C27.1491 6.43159 27.0813 6.00799 27.31 5.76128Z" fill="#B1B1B2"/>
<path id="Vector_6" d="M27.3101 5.76128C29.3306 3.56416 31.55 1.81856 33.6637 0.184684C33.939 -0.0294424 34.2948 -0.0573719 34.5955 0.100895L31.0418 7.94909C30.9613 8.12598 30.7622 8.20046 30.6013 8.11201L27.4965 6.4409C27.2085 6.29194 27.0856 6.00334 27.3101 5.75662V5.76128Z" fill="#6D6D6E"/>
<path id="Vector_7" d="M28.4636 7.56427L26.3149 12.4927L29.9476 14.4054L32.0963 9.47704L28.4636 7.56427Z" fill="#98989C"/>
<path id="Vector_8" d="M26.5646 12.618L26.3147 12.4877L28.4622 7.55811V8.27496L26.5646 12.618Z" fill="#68676C"/>
<path id="Vector_9" d="M29.9489 14.401L26.3147 12.4878L26.8569 11.9199L29.9235 13.5352L29.9489 14.401Z" fill="#EDEEEF"/>
<g id="Group_3">
<path id="Vector_10" d="M29.0086 8.12145C28.8477 8.03766 28.2801 8.96865 27.7379 10.2069C27.1958 11.4451 26.8908 12.5157 27.056 12.5995C27.2169 12.6833 27.7845 11.7523 28.3267 10.5141C28.8646 9.27587 29.1738 8.20524 29.0086 8.12145Z" fill="#504F53"/>
<path id="Vector_11" d="M29.5974 8.43346C29.4364 8.34967 28.8689 9.28066 28.3267 10.5189C27.7888 11.7571 27.4796 12.8277 27.6448 12.9115C27.8057 12.9953 28.3733 12.0643 28.9155 10.8261C29.4534 9.58788 29.7626 8.51725 29.5974 8.43346Z" fill="#504F53"/>
<path id="Vector_12" d="M30.1819 8.74059C30.0209 8.6568 29.4533 9.58779 28.9112 10.826C28.3732 12.0642 28.064 13.1348 28.2292 13.2186C28.3944 13.3024 28.9578 12.3714 29.4999 11.1332C30.0421 9.89501 30.3471 8.82438 30.1819 8.74059Z" fill="#504F53"/>
<path id="Vector_13" d="M30.7665 9.04772C30.6055 8.96393 30.0379 9.89492 29.4957 11.1331C28.9536 12.3713 28.6486 13.442 28.8138 13.5258C28.979 13.6095 29.5423 12.6786 30.0845 11.4403C30.6224 10.2021 30.9316 9.13151 30.7665 9.04772Z" fill="#504F53"/>
<path id="Vector_14" d="M31.3552 9.35485C31.1943 9.27106 30.6267 10.202 30.0845 11.4403C29.5466 12.6785 29.2374 13.7491 29.4026 13.8329C29.5635 13.9167 30.1311 12.9857 30.6733 11.7475C31.2112 10.5093 31.5204 9.43864 31.3552 9.35485Z" fill="#504F53"/>
</g>
</g>
<g id="Group_4">
<path id="Vector_15" d="M9.3423 1.13448C6.73312 -0.331825 4.48821 0.124357 3.80203 0.324519C3.66649 0.361758 3.55213 0.464167 3.48859 0.599159L3.23869 1.13913L6.02153 2.70318C7.57602 3.57831 8.19443 5.67302 7.39813 7.38138L7.36848 7.44189C6.57217 9.15025 4.66611 9.82987 3.10738 8.95474L0.328774 7.39534L0.0534553 7.98652C-0.0100799 8.12617 -0.0185513 8.28909 0.0365125 8.43339C0.299125 9.1549 1.29027 11.366 3.90369 12.8323C5.81398 13.9029 7.27953 13.6609 8.4994 12.5297C8.87214 12.1853 9.42702 12.2039 9.77434 12.5856L27.8607 32.4621C28.0937 32.7181 28.2165 33.0858 28.1657 33.4443C27.9369 35.0688 28.3817 36.8051 29.5084 38.1085L30.3767 37.1543L30.3343 37.1403L29.3178 33.1696L30.3725 32.0106L30.0378 31.6428L31.9778 29.5109L11.5067 7.02761C12.2183 4.54653 11.8032 2.51699 9.3423 1.13448Z" fill="#D8DADC"/>
<path id="Vector_16" d="M31.1602 28.6264L12.0488 7.62343C11.7269 7.26966 11.5914 6.76227 11.6888 6.27816C12.1124 4.1369 11.549 2.37734 9.33799 1.13448C6.72881 -0.331825 4.4839 0.124357 3.79772 0.324519C3.66218 0.361758 3.54782 0.464167 3.48428 0.599159L3.23438 1.13913L6.4662 2.95455C8.02069 3.82967 8.19012 5.67302 7.39381 7.38138L10.579 9.13163L29.7879 30.2417C29.7413 30.2836 29.6947 30.3208 29.6523 30.3674L30.7578 31.5823L31.8972 30.3301L35.5103 31.4473L35.523 31.4939L36.3913 30.5396C35.2392 29.3386 33.7143 28.8406 32.2742 29.0407C31.8633 29.0966 31.4525 28.9476 31.1602 28.6264Z" fill="#B1B1B2"/>
<path id="Vector_17" d="M30.6435 28.9657L11.8625 8.32579C11.5236 7.9534 11.3838 7.40412 11.5067 6.89208C12.0531 4.58324 11.4008 2.81902 9.04573 1.56685C6.37726 0.147096 3.43769 0.710341 3.43769 0.710341L3.23862 1.13859L6.02146 2.70265C7.57595 3.57777 8.19436 5.67249 7.39805 7.38084L7.3684 7.44136C6.5721 9.14971 4.66604 9.82933 3.10731 8.95421L0.328704 7.39481L0.142334 7.79513C0.142334 7.79513 1.42998 11.0117 4.07728 12.3383C6.04264 13.3252 7.44465 13.2693 8.60099 12.2918C9.15586 11.8263 9.93099 11.8542 10.4266 12.3942L28.0936 31.8099C28.4282 32.1776 28.5426 32.7129 28.4282 33.2157C27.9792 35.1568 28.5299 37.3213 30.0886 38.7131C31.8464 40.2865 34.4175 40.2958 36.1837 38.741C38.4964 36.7068 38.632 32.9876 36.5988 30.7532C35.3281 29.3567 33.5364 28.8959 31.9184 29.3614C31.461 29.4917 30.9739 29.3288 30.6392 28.9611L30.6435 28.9657ZM36.4506 35.5897L34.0998 38.1731C34.0235 38.2569 33.9134 38.2895 33.8118 38.2569L30.6011 37.312C30.4995 37.2794 30.419 37.1956 30.3893 37.0792L29.5295 33.5508C29.4998 33.4391 29.5295 33.3181 29.6057 33.2343L31.9565 30.6508C32.0328 30.567 32.1429 30.5344 32.2446 30.567L35.4552 31.512C35.5569 31.5445 35.6373 31.633 35.667 31.7447L36.5268 35.2731C36.5565 35.3848 36.5268 35.5059 36.4506 35.5897Z" fill="#6D6D6E"/>
<path id="Vector_18" d="M10.6502 9.7708L10.6023 9.82346C10.2417 10.2198 10.2417 10.8623 10.6023 11.2586L28.0246 30.4054C28.3852 30.8017 28.9699 30.8017 29.3305 30.4054L29.3784 30.3527C29.739 29.9564 29.739 29.3139 29.3784 28.9176L11.956 9.7708C11.5954 9.3745 11.0108 9.3745 10.6502 9.7708Z" fill="#B1B1B2"/>
</g>
</g>
</svg>

<svg width="40" height="40" fill="none" xmlns="http://www.w3.org/2000/svg"><path d="M38.708 13.065c1.546-3.267 1.36-6.39 1.16-9.193a.408.408 0 0 0-.207-.335l-.288-.15-2.359 5.372c-.538 1.253-1.893 1.793-3.033 1.201l-8.717-4.599c-.11-.06-.241 0-.28.13-.69 2.226-.19 6.16-1.732 7.714L3.116 32.695c-1.533 1.564-1.559 4.264 0 5.972l.055.06c1.559 1.714 4.015 1.681 5.434 0 0 0 15.846-18.893 17.57-20.816 1.72-1.922 2.194-1.801 4.3-1.606 2.884.275 6.577.247 8.233-3.249v.01ZM4.403 37.317a1.773 1.773 0 0 1 0-2.341 1.412 1.412 0 0 1 2.131 0 1.773 1.773 0 0 1 0 2.341 1.412 1.412 0 0 1-2.13 0Z" fill="#D8DADC"/><path d="M38.708 13.065c1.546-3.267 1.36-6.39 1.16-9.193a.408.408 0 0 0-.207-.335l-.288-.15-1.825 5.959-11.894 6.494s-8.98 9.99-14.6 18.051c-4.24 6.08-5.863 6.387-7.938 4.776l.055.06c1.559 1.714 4.015 1.681 5.434 0 0 0 15.846-18.893 17.57-20.816 1.72-1.922 2.194-1.801 4.3-1.606 2.884.275 6.577.247 8.233-3.249v.01Z" fill="#B1B1B2"/><path d="M38.221 12.53c1.546-3.263 1.817-5.884 1.644-8.658a.397.397 0 0 0-.212-.335l-.288-.15-2.36 5.372c-.537 1.253-1.893 1.793-3.032 1.201l-8.717-4.599c-.11-.055-.242 0-.28.13-.343 1.1-.394 2.617-.542 4.055-.05.508.025 3.473-.703 4.19L3.747 33.389c-1.533 1.564-1.084 3.398 0 4.59 1.084 1.191 2.813 1.745 4.231.06 0 0 15.846-18.894 17.57-20.817 1.72-1.922 2.825-1.112 4.93-.912 2.885.274 6.096-.289 7.747-3.78h-.004ZM4.404 37.317a1.773 1.773 0 0 1 0-2.341 1.412 1.412 0 0 1 2.13 0 1.773 1.773 0 0 1 0 2.341 1.412 1.412 0 0 1-2.13 0Z" fill="#6D6D6E"/><path d="M7.347 37.345S23.32 18.59 25.04 16.672c.42-.512.644-1.206-.22-1.894-.627-.503-1.326.135-1.326.135L4.374 34.082c-.873.912-1.084 2.015 0 3.202.004.005.013.01.017.019-.576-.647-.572-1.685.013-2.323.584-.638 1.541-.647 2.13 0a1.773 1.773 0 0 1 0 2.341c-.55.605-1.419.643-2.008.117 1.042 1.01 2.173.703 2.826-.089l-.005-.004Z" fill="#9B9B9B"/><path d="M27.31 5.761c2.02-2.197 4.24-3.942 6.354-5.576A.852.852 0 0 1 34.595.1l.356.251-3.515 8.38-3.999-2.151c-.288-.15-.356-.573-.127-.82Z" fill="#B1B1B2"/><path d="M27.31 5.761c2.02-2.197 4.24-3.942 6.354-5.576A.852.852 0 0 1 34.595.1l-3.553 7.848c-.08.177-.28.251-.44.163l-3.105-1.671c-.288-.15-.411-.438-.187-.684v.004Z" fill="#6D6D6E"/><path d="m28.464 7.564-2.15 4.929 3.634 1.912 2.148-4.928-3.632-1.913Z" fill="#98989C"/><path d="m26.565 12.618-.25-.13 2.147-4.93v.717l-1.897 4.343Z" fill="#68676C"/><path d="m29.949 14.401-3.634-1.913.542-.568 3.067 1.615.025.866Z" fill="#EDEEEF"/><g fill="#504F53"><path d="M29.009 8.121c-.161-.083-.729.848-1.271 2.086-.542 1.238-.847 2.309-.682 2.393.16.083.729-.848 1.27-2.086.539-1.238.848-2.309.683-2.393ZM29.597 8.433c-.16-.083-.728.848-1.27 2.086-.538 1.238-.847 2.309-.682 2.393.16.083.728-.848 1.27-2.086.538-1.238.848-2.309.682-2.393Z"/><path d="M30.182 8.74c-.161-.083-.729.848-1.27 2.086-.539 1.238-.848 2.309-.683 2.393.165.083.729-.848 1.27-2.086.543-1.238.848-2.309.683-2.392Z"/><path d="M30.767 9.048c-.162-.084-.73.847-1.271 2.085-.542 1.238-.847 2.309-.682 2.393.165.084.728-.847 1.27-2.086.538-1.238.848-2.308.683-2.392ZM31.355 9.355c-.16-.084-.728.847-1.27 2.085-.538 1.239-.848 2.31-.682 2.393.16.084.728-.847 1.27-2.085.538-1.239.847-2.31.682-2.393Z"/></g><path d="M9.342 1.134C6.733-.332 4.488.124 3.802.324A.501.501 0 0 0 3.489.6l-.25.54 2.783 1.564c1.554.875 2.172 2.97 1.376 4.678l-.03.06c-.796 1.71-2.702 2.389-4.26 1.514l-2.78-1.56-.275.592a.584.584 0 0 0-.016.446c.262.722 1.253 2.933 3.867 4.4 1.91 1.07 3.376.828 4.595-.303a.883.883 0 0 1 1.275.056l18.087 19.876c.233.256.355.624.305.982-.23 1.625.216 3.361 1.342 4.664l.869-.954-.043-.014-1.016-3.97 1.054-1.16-.334-.367 1.94-2.132L11.507 7.028c.711-2.481.296-4.511-2.165-5.894Z" fill="#D8DADC"/><path d="M31.16 28.626 12.05 7.623a1.556 1.556 0 0 1-.36-1.345c.423-2.141-.14-3.9-2.351-5.144-2.61-1.466-4.854-1.01-5.54-.81A.501.501 0 0 0 3.484.6l-.25.54 3.232 1.816c1.555.875 1.724 2.718.928 4.426l3.185 1.75 19.209 21.11c-.047.043-.093.08-.136.126l1.106 1.215 1.14-1.252 3.612 1.117.013.047.868-.954c-1.152-1.201-2.677-1.7-4.117-1.5a1.267 1.267 0 0 1-1.114-.414Z" fill="#B1B1B2"/><path d="m30.643 28.966-18.78-20.64a1.6 1.6 0 0 1-.356-1.434c.546-2.309-.106-4.073-2.461-5.325C6.377.147 3.438.71 3.438.71l-.2.429 2.783 1.564c1.555.875 2.173 2.97 1.377 4.678l-.03.06C6.572 9.15 4.666 9.83 3.108 8.954l-2.78-1.56-.186.401s1.288 3.217 3.935 4.543c1.966.987 3.368.931 4.524-.046.555-.466 1.33-.438 1.826.102L28.094 31.81c.334.368.449.903.334 1.406-.449 1.94.102 4.105 1.66 5.497 1.758 1.573 4.33 1.583 6.096.028 2.312-2.034 2.448-5.753.415-7.988-1.27-1.396-3.063-1.857-4.68-1.392-.458.13-.945-.032-1.28-.4l.005.005Zm5.808 6.624L34.1 38.173a.275.275 0 0 1-.288.084l-3.21-.945a.322.322 0 0 1-.213-.233l-.86-3.528a.343.343 0 0 1 .077-.317l2.35-2.583c.077-.084.187-.117.289-.084l3.21.945a.33.33 0 0 1 .212.233l.86 3.528c.03.112 0 .233-.076.317Z" fill="#6D6D6E"/><path d="m10.65 9.77-.048.053a1.087 1.087 0 0 0 0 1.436l17.423 19.146a.866.866 0 0 0 1.306 0l.047-.052c.361-.397.361-1.04 0-1.435L11.956 9.77a.866.866 0 0 0-1.306 0Z" fill="#B1B1B2"/></svg>
